packages/foundations/assets/icons/functional/images/environment/snow_flake_28.svg

<svg width="28" height="28" viewBox="0 0 28 28" fill="none" xmlns="http://www.w3.org/2000/svg">
<g clip-path="url(#clip0_185_839)">
<path fill-rule="evenodd" clip-rule="evenodd" d="M14.0001 2.73438C14.3905 2.73438 14.7729 3.05499 14.7658 3.5L14.7652 5.026L15.7088 4.08362C16.0078 3.78463 16.4925 3.78463 16.7915 4.08362C17.0656 4.3577 17.1031 4.82903 16.7915 5.16638L14.7652 7.19163V12.6735L19.7003 9.8245L20.3919 7.24507C20.5014 6.83663 20.9212 6.59425 21.3296 6.70369C21.704 6.80401 21.9841 7.17776 21.871 7.64138L21.5754 8.74212L22.7106 8.08695C23.0768 7.87553 23.545 8.00099 23.7565 8.36719C23.9516 8.70521 23.8501 9.15751 23.5269 9.38199L22.103 10.2051L23.5796 10.6008C23.988 10.7102 24.2304 11.1301 24.121 11.5385C24.0207 11.9129 23.6373 12.1777 23.2469 12.097L20.2279 11.2875L15.53 14L20.6024 16.9277L23.1833 16.2373C23.5917 16.1278 24.0116 16.3702 24.121 16.7786C24.2213 17.153 24.0082 17.6054 23.5796 17.7163L22.4784 18.011L23.4762 18.5869C23.8424 18.7984 23.9679 19.2666 23.7565 19.6328C23.5613 19.9708 23.1138 20.1394 22.7106 19.9131L21.4748 19.1992L21.871 20.6757C21.9804 21.0842 21.738 21.504 21.3296 21.6134C20.9552 21.7138 20.5142 21.5123 20.3919 21.0721L19.5997 18.1169L14.7652 15.3256V21.1243L16.7915 23.1508C17.0905 23.4497 17.0905 23.9345 16.7915 24.2335C16.5174 24.5076 16.0474 24.5585 15.7088 24.2335L14.7652 23.2899L14.7658 24.5C14.7658 24.9228 14.423 25.2656 14.0001 25.2656C13.6098 25.2656 13.2405 24.9521 13.2405 24.5L13.234 23.2899L12.2915 24.2335C11.9925 24.5325 11.5078 24.5325 11.2088 24.2335C10.9347 23.9594 10.8871 23.4746 11.2088 23.1508L13.234 21.1243V15.3256L8.39952 18.1169L7.60837 21.0721C7.49893 21.4805 7.07911 21.7229 6.67067 21.6134C6.29628 21.5131 6.01097 21.1062 6.1293 20.6757L6.52439 19.1992L5.28969 19.9131C4.9235 20.1245 4.45525 19.999 4.24383 19.6328C4.04867 19.2948 4.12768 18.829 4.52406 18.5869L5.51989 18.011L4.42067 17.7163C4.01224 17.6069 3.76986 17.1871 3.8793 16.7786C3.97962 16.4042 4.38224 16.1214 4.81699 16.2373L7.39677 16.9277L12.4692 13.9991L7.77127 11.2875L4.81699 12.0799C4.40856 12.1893 3.98874 11.9469 3.8793 11.5385C3.77898 11.1641 3.9634 10.7397 4.42067 10.6008L5.89614 10.2051L4.52406 9.41305C4.15787 9.20163 4.0324 8.73338 4.24383 8.36719C4.43898 8.02916 4.87488 7.86536 5.28969 8.08695L6.42377 8.74212L6.1293 7.64138C6.01986 7.23295 6.26224 6.81313 6.67067 6.70369C7.04507 6.60337 7.46161 6.78356 7.60837 7.24507L8.29889 9.8245L13.234 12.6735V7.19163L11.2088 5.16638C10.9098 4.86738 10.9098 4.38262 11.2088 4.08362C11.4828 3.80954 11.9162 3.76461 12.2718 4.05993L13.234 5.026L13.2345 3.5C13.2345 3.07716 13.5773 2.73438 14.0001 2.73438Z" fill="#1A1C1F"/>
</g>
<defs>
<clipPath id="clip0_185_839">
<rect width="28" height="28" fill="white"/>
</clipPath>
</defs>
</svg>

<svg xmlns="http://www.w3.org/2000/svg" width="28" height="28" fill="none"><g clip-path="url(#a)"><path fill="#1A1C1F" fill-rule="evenodd" d="M14 2.734c.39 0 .773.321.766.766v1.526l.943-.942a.766.766 0 0 1 1.082 0 .776.776 0 0 1 0 1.082l-2.026 2.026v5.482l4.935-2.85.692-2.579c.11-.408.53-.65.938-.541a.76.76 0 0 1 .541.937l-.296 1.101 1.136-.655a.766.766 0 0 1 1.046.28.78.78 0 0 1-.23 1.015l-1.424.823 1.477.396c.408.11.65.53.541.938-.1.374-.484.639-.874.558l-3.02-.81L15.53 14l5.072 2.928 2.581-.69a.766.766 0 0 1 .938.54c.1.375-.113.827-.541.938l-1.102.295.998.576a.766.766 0 0 1-.765 1.326l-1.236-.714.396 1.477a.766.766 0 0 1-1.48.396l-.791-2.955-4.835-2.791v5.798l2.026 2.027a.766.766 0 1 1-1.082 1.082l-.944-.943v1.21a.762.762 0 1 1-1.525 0l-.006-1.21-.943.944a.766.766 0 1 1-1.082-1.083l2.025-2.027v-5.798L8.4 18.116l-.792 2.956a.766.766 0 1 1-1.479-.396l.395-1.477-1.234.714a.766.766 0 0 1-.766-1.326l.996-.576-1.1-.295a.766.766 0 1 1 .397-1.479l2.58.69L12.469 14l-4.698-2.712-2.954.793a.766.766 0 0 1-.396-1.48l1.475-.395-1.372-.792a.766.766 0 1 1 .766-1.326l1.134.655-.295-1.1a.766.766 0 1 1 1.48-.397l.69 2.58 4.935 2.849V7.192l-2.025-2.026a.766.766 0 0 1 0-1.082c.274-.274.707-.32 1.063-.024l.962.966V3.5c0-.423.343-.766.766-.766" clip-rule="evenodd"/></g><defs><clipPath id="a"><path fill="#fff" d="M0 0h28v28H0z"/></clipPath></defs></svg>
